svgs/sharp-duotone-solid/cup-togo.svg

<svg xmlns="http://www.w3.org/2000/svg" viewBox="0 0 448 512"><!--! Font Awesome Pro 7.1.0 by @fontawesome - https://fontawesome.com License - https://fontawesome.com/license (Commercial License) Copyright 2025 Fonticons, Inc. --><path opacity=".4" fill="currentColor" d="M48 128l352 0c-2.9 34.7-5.8 69.3-8.7 104L56.7 232c-2.9-34.7-5.8-69.3-8.7-104zM70 392l308 0-10 120-288 0c-3.3-40-6.7-80-10-120z"/><path fill="currentColor" d="M64 0l-32 64-32 0 0 64 448 0 0-64-32 0-32-64-320 0zM378 392l13.3-160-334.7 0 13.3 160 308 0z"/></svg>

<svg xmlns="http://www.w3.org/2000/svg" viewBox="0 0 448 512"><!--! Font Awesome Pro 6.7.2 by @fontawesome - https://fontawesome.com License - https://fontawesome.com/license (Commercial License) Copyright 2024 Fonticons, Inc. --><defs><style>.fa-secondary{opacity:.4}</style></defs><path class="fa-secondary" d="M48 128l352 0-8.7 104L56.7 232 48 128zM70 392l308 0L368 512 80 512c-3.3-40-6.7-80-10-120z"/><path class="fa-primary" d="M64 0L32 64 0 64l0 64 32 0 384 0 32 0 0-64-32 0L384 0 64 0zM378 392l13.3-160L56.7 232 70 392l308 0z"/></svg>
